X:1
T:THROUGH THE GATE
M:2/4
Q:1/4=100
K:C
c2e2e2e2|d2f2e4|c2e2e2e2|d2f2e4|d3cB2A2|G2B2c2e2|
d3cB2A2|G2B2c7/2||
